X:1
T:He That Will an Alehouse Keep
M:4/4
L:1/4
K:F
 C C C C| F F F F| G A B c| F2 z F| c c c c| d c A F| B c d e| f e/2d/2 c A|\
 c B/2A/2 G E| A A/2G/2 F f| e/2d/2 cB/2-d/2 c/2B/2| A2 z2|||
